(Project HotPi - Board Outline)
(Created by Estlcam version 10 build 11.012)
(Machining time about 00:17:53 hours)

(Required tools:)
(Endmill - 1mm)

G90
M03 S12000
G00 Z-5.0000


(No. 1: Part 2)
G00 X-0.5000 Y68.9655
G00 Z-0.5000
G01 Z0.0000 F79 S12000
G01 Y68.0995 Z0.2500
G01 Y68.9655 Z0.5000
G01 Y4.0000 F158
G01 X-0.4975 Y3.9501
G03 X-0.0354 Y3.5013 I0.4975 J0.0499
G02 X3.5056 Y-0.0744 I0.0249 J-3.5164
G03 X3.9893 Y-0.4999 I0.4944 J0.0744
G01 X43.9822
G00 Z0.0000
G01 X45.9822
G01 X46.8482 Z0.2500 F79
G01 X45.9822 Z0.5000
G01 X85.9750 Y-0.5000 F158
G03 X86.4737 Y-0.0354 I0.0000 J0.5000
G01 X86.4926 Y0.3428
G02 X90.0494 Y3.5056 I3.4969 J-0.3512
G03 X90.4750 Y4.0200 I-0.0749 J0.4952
G01 Y68.9855
G00 Z0.0000
G01 Y70.9855
G01 Y71.8515 Z0.2500 F79
G01 Y70.9855 Z0.5000
G01 Y135.9510 F158
G03 X90.0104 Y136.4497 I-0.5000 J0.0000
G02 X86.4926 Y139.6082 I-0.0304 J3.5044
G01 X86.4744 Y139.9757
G03 X85.9550 Y140.4510 I-0.5001 J-0.0250
G01 X45.9775
G00 Z0.0000
G01 X43.9775
G01 X43.1115 Z0.2500 F79
G01 X43.9775 Z0.5000
G01 X4.0000 F158
G03 X3.5013 Y139.9864 I0.0000 J-0.5000
G02 X-0.0744 Y136.4454 I-3.5164 J-0.0249
G03 X-0.4999 Y135.9617 I0.0744 J-0.4944
G01 X-0.5000 Y135.9310
G01 Y70.9655
G00 Z0.0000
G01 Y68.9655
G01 Z0.5000 F79
G01 Y68.0995 Z0.7500
G01 Y68.9655 Z1.0000
G01 Y4.0000 F158
G01 X-0.4975 Y3.9501
G03 X-0.0354 Y3.5013 I0.4975 J0.0499
G02 X3.5056 Y-0.0744 I0.0249 J-3.5164
G03 X3.9893 Y-0.4999 I0.4944 J0.0744
G01 X43.9822
G00 Z0.0000
G01 X45.9822
G01 Z0.5000 F79
G01 X46.8482 Z0.7500
G01 X45.9822 Z1.0000
G01 X85.9750 Y-0.5000 F158
G03 X86.4737 Y-0.0354 I0.0000 J0.5000
G01 X86.4926 Y0.3428
G02 X90.0494 Y3.5056 I3.4969 J-0.3512
G03 X90.4750 Y4.0200 I-0.0749 J0.4952
G01 Y68.9855
G00 Z0.0000
G01 Y70.9855
G01 Z0.5000 F79
G01 Y71.8515 Z0.7500
G01 Y70.9855 Z1.0000
G01 Y135.9510 F158
G03 X90.0104 Y136.4497 I-0.5000 J0.0000
G02 X86.4926 Y139.6082 I-0.0304 J3.5044
G01 X86.4744 Y139.9757
G03 X85.9550 Y140.4510 I-0.5001 J-0.0250
G01 X45.9775
G00 Z0.0000
G01 X43.9775
G01 Z0.5000 F79
G01 X43.1115 Z0.7500
G01 X43.9775 Z1.0000
G01 X4.0000 F158
G03 X3.5013 Y139.9864 I0.0000 J-0.5000
G02 X-0.0744 Y136.4454 I-3.5164 J-0.0249
G03 X-0.4999 Y135.9617 I0.0744 J-0.4944
G01 X-0.5000 Y135.9310
G01 Y70.9655
G00 Z0.0000
G01 Y68.9655
G00 Z0.5000
G01 Z1.0000 F79
G01 Y68.0995 Z1.2500
G01 Y68.9655 Z1.5000
G01 Y4.0000 F158
G01 X-0.4975 Y3.9501
G03 X-0.0354 Y3.5013 I0.4975 J0.0499
G02 X3.5056 Y-0.0744 I0.0249 J-3.5164
G03 X3.9893 Y-0.4999 I0.4944 J0.0744
G01 X43.9822
G00 Z0.0000
G01 X45.9822
G00 Z0.5000
G01 Z1.0000 F79
G01 X46.8482 Z1.2500
G01 X45.9822 Z1.5000
G01 X85.9750 Y-0.5000 F158
G03 X86.4737 Y-0.0354 I0.0000 J0.5000
G01 X86.4926 Y0.3428
G02 X90.0494 Y3.5056 I3.4969 J-0.3512
G03 X90.4750 Y4.0200 I-0.0749 J0.4952
G01 Y68.9855
G00 Z0.0000
G01 Y70.9855
G00 Z0.5000
G01 Z1.0000 F79
G01 Y71.8515 Z1.2500
G01 Y70.9855 Z1.5000
G01 Y135.9510 F158
G03 X90.0104 Y136.4497 I-0.5000 J0.0000
G02 X86.4926 Y139.6082 I-0.0304 J3.5044
G01 X86.4744 Y139.9757
G03 X85.9550 Y140.4510 I-0.5001 J-0.0250
G01 X45.9775
G00 Z0.0000
G01 X43.9775
G00 Z0.5000
G01 Z1.0000 F79
G01 X43.1115 Z1.2500
G01 X43.9775 Z1.5000
G01 X4.0000 F158
G03 X3.5013 Y139.9864 I0.0000 J-0.5000
G02 X-0.0744 Y136.4454 I-3.5164 J-0.0249
G03 X-0.4999 Y135.9617 I0.0744 J-0.4944
G01 X-0.5000 Y135.9310
G01 Y70.9655
G00 Z0.0000
G01 Y68.9655
G00 Z1.0000
G01 Z1.5000 F79
G01 Y68.0995 Z1.7500
G01 Y68.9655 Z2.0000
G01 Y4.0000 F158
G01 X-0.4975 Y3.9501
G03 X-0.0354 Y3.5013 I0.4975 J0.0499
G02 X3.5056 Y-0.0744 I0.0249 J-3.5164
G03 X3.9893 Y-0.4999 I0.4944 J0.0744
G01 X43.9822
G00 Z0.0000
G01 X45.9822
G00 Z1.0000
G01 Z1.5000 F79
G01 X46.8482 Z1.7500
G01 X45.9822 Z2.0000
G01 X85.9750 Y-0.5000 F158
G03 X86.4737 Y-0.0354 I0.0000 J0.5000
G01 X86.4926 Y0.3428
G02 X90.0494 Y3.5056 I3.4969 J-0.3512
G03 X90.4750 Y4.0200 I-0.0749 J0.4952
G01 Y68.9855
G00 Z0.0000
G01 Y70.9855
G00 Z1.0000
G01 Z1.5000 F79
G01 Y71.8515 Z1.7500
G01 Y70.9855 Z2.0000
G01 Y135.9510 F158
G03 X90.0104 Y136.4497 I-0.5000 J0.0000
G02 X86.4926 Y139.6082 I-0.0304 J3.5044
G01 X86.4744 Y139.9757
G03 X85.9550 Y140.4510 I-0.5001 J-0.0250
G01 X45.9775
G00 Z0.0000
G01 X43.9775
G00 Z1.0000
G01 Z1.5000 F79
G01 X43.1115 Z1.7500
G01 X43.9775 Z2.0000
G01 X4.0000 F158
G03 X3.5013 Y139.9864 I0.0000 J-0.5000
G02 X-0.0744 Y136.4454 I-3.5164 J-0.0249
G03 X-0.4999 Y135.9617 I0.0744 J-0.4944
G01 X-0.5000 Y135.9310
G01 Y70.9655
G00 Z0.0000
G01 Y68.9655
G00 Z-5.0000
G00 X0.0000 Y0.0000

M05
M30
%

