(Project SsrMount)
(Created by Estlcam version 10 build 11.013)
(Machining time about 01:16:45 hours)

(Required tools:)
(HSS Twist Drill, 4mm (F))
(HSS 2-Flute Endmill, 1mm)

G90
M03 S9000
G00 Z-35.0000


(No. 1: Drill 5)
G00 X36.0000 Y98.0000
G00 Z-0.5000
G01 Z0.5000 F30 S9000
G00 Z-0.5000
G00 Z0.0000
G01 Z1.0000
G00 Z-0.5000
G00 Z0.5000
G01 Z1.5000
G00 Z-0.5000
G00 Z1.0000
G01 Z2.0000
G00 Z-0.5000
G00 Z1.5000
G01 Z2.5000
G00 Z-35.0000


(No. 2: Drill 4)
G00 X28.0000 Y120.0000 Z-35.0000
G00 Z-0.5000
G01 Z0.5000 F30
G00 Z-0.5000
G00 Z0.0000
G01 Z1.0000
G00 Z-0.5000
G00 Z0.5000
G01 Z1.5000
G00 Z-0.5000
G00 Z1.0000
G01 Z2.0000
G00 Z-0.5000
G00 Z1.5000
G01 Z2.5000
G00 Z-35.0000


(No. 3: Drill 3)
G00 X28.0000 Y142.0000 Z-35.0000
G00 Z-0.5000
G01 Z0.5000 F30
G00 Z-0.5000
G00 Z0.0000
G01 Z1.0000
G00 Z-0.5000
G00 Z0.5000
G01 Z1.5000
G00 Z-0.5000
G00 Z1.0000
G01 Z2.0000
G00 Z-0.5000
G00 Z1.5000
G01 Z2.5000
G00 Z-35.0000


(No. 4: Drill 2)
G00 X36.0000 Y175.0000 Z-35.0000
G00 Z-0.5000
G01 Z0.5000 F30
G00 Z-0.5000
G00 Z0.0000
G01 Z1.0000
G00 Z-0.5000
G00 Z0.5000
G01 Z1.5000
G00 Z-0.5000
G00 Z1.0000
G01 Z2.0000
G00 Z-0.5000
G00 Z1.5000
G01 Z2.5000
G00 Z-35.0000


(No. 5: Drill 1)
G00 X36.0000 Y186.0000 Z-35.0000
G00 Z-0.5000
G01 Z0.5000 F30
G00 Z-0.5000
G00 Z0.0000
G01 Z1.0000
G00 Z-0.5000
G00 Z0.5000
G01 Z1.5000
G00 Z-0.5000
G00 Z1.0000
G01 Z2.0000
G00 Z-0.5000
G00 Z1.5000
G01 Z2.5000
G00 Z-35.0000


(No. 6: Drill 6)
G00 X111.0000 Y190.0000 Z-35.0000
G00 Z-0.5000
G01 Z0.5000 F30
G00 Z-0.5000
G00 Z0.0000
G01 Z1.0000
G00 Z-0.5000
G00 Z0.5000
G01 Z1.5000
G00 Z-0.5000
G00 Z1.0000
G01 Z2.0000
G00 Z-0.5000
G00 Z1.5000
G01 Z2.5000
G00 Z-35.0000


(No. 7: Drill 7)
G00 X111.0000 Y141.0000 Z-35.0000
G00 Z-0.5000
G01 Z0.5000 F30
G00 Z-0.5000
G00 Z0.0000
G01 Z1.0000
G00 Z-0.5000
G00 Z0.5000
G01 Z1.5000
G00 Z-0.5000
G00 Z1.0000
G01 Z2.0000
G00 Z-0.5000
G00 Z1.5000
G01 Z2.5000
G00 Z-35.0000


(No. 8: Drill 10)
G00 X141.0000 Y65.0000 Z-35.0000
G00 Z-0.5000
G01 Z0.5000 F30
G00 Z-0.5000
G00 Z0.0000
G01 Z1.0000
G00 Z-0.5000
G00 Z0.5000
G01 Z1.5000
G00 Z-0.5000
G00 Z1.0000
G01 Z2.0000
G00 Z-0.5000
G00 Z1.5000
G01 Z2.5000
G00 Z-35.0000


(No. 9: Drill 11)
G00 X141.0000 Y16.0000 Z-35.0000
G00 Z-0.5000
G01 Z0.5000 F30
G00 Z-0.5000
G00 Z0.0000
G01 Z1.0000
G00 Z-0.5000
G00 Z0.5000
G01 Z1.5000
G00 Z-0.5000
G00 Z1.0000
G01 Z2.0000
G00 Z-0.5000
G00 Z1.5000
G01 Z2.5000
G00 Z-35.0000


(No. 10: Drill 9)
G00 X195.0000 Y141.0000 Z-35.0000
G00 Z-0.5000
G01 Z0.5000 F30
G00 Z-0.5000
G00 Z0.0000
G01 Z1.0000
G00 Z-0.5000
G00 Z0.5000
G01 Z1.5000
G00 Z-0.5000
G00 Z1.0000
G01 Z2.0000
G00 Z-0.5000
G00 Z1.5000
G01 Z2.5000
G00 Z-35.0000


(No. 11: Drill 8)
G00 X195.0000 Y190.0000 Z-35.0000
G00 Z-0.5000
G01 Z0.5000 F30
G00 Z-0.5000
G00 Z0.0000
G01 Z1.0000
G00 Z-0.5000
G00 Z0.5000
G01 Z1.5000
G00 Z-0.5000
G00 Z1.0000
G01 Z2.0000
G00 Z-0.5000
G00 Z1.5000
G01 Z2.5000
G00 Z-35.0000


(No. 12: Hole 1)
M05
T4 M06 (Change tool: HSS 2-Flute Endmill, 1mm)
M03
G00 X28.0000 Y142.0000 Z-35.0000
G01 Z0.5000 F30 S12000
G01 X32.8333 Y143.5000 F150
G01 X45.5000
G01 Y134.5000
G01 X26.5000
G01 Y143.5000
G01 X32.8333
G01 X28.0000 Y142.0000
G01 Z1.0000 F30
G01 X32.8333 Y143.5000 F150
G01 X45.5000
G01 Y134.5000
G01 X26.5000
G01 Y143.5000
G01 X32.8333
G01 X28.0000 Y142.0000
G01 Z1.5000 F30
G01 X32.8333 Y143.5000 F150
G01 X45.5000
G01 Y134.5000
G01 X26.5000
G01 Y143.5000
G01 X32.8333
G01 X28.0000 Y142.0000
G00 Z-35.0000


(No. 13: Hole 2)
G00 X28.0000 Y120.0000 Z-35.0000
G01 Z0.5000 F30
G01 X32.8333 Y118.5000 F150
G01 X26.5000
G01 Y127.5000
G01 X45.5000
G01 Y118.5000
G01 X32.8333
G01 X28.0000 Y120.0000
G01 Z1.0000 F30
G01 X32.8333 Y118.5000 F150
G01 X26.5000
G01 Y127.5000
G01 X45.5000
G01 Y118.5000
G01 X32.8333
G01 X28.0000 Y120.0000
G01 Z1.5000 F30
G01 X32.8333 Y118.5000 F150
G01 X26.5000
G01 Y127.5000
G01 X45.5000
G01 Y118.5000
G01 X32.8333
G01 X28.0000 Y120.0000
G00 Z-35.0000


(No. 14: Engraving 1)
G00 X60.0000 Y0.0000 Z-35.0000
G00 Z-0.5000
G01 Z0.2000 F30
G01 Y250.0000 F150
G00 Z-35.0000


(No. 15: Hole 3)
G00 X40.9664 Y-9.9206 Z-35.0000
G01 Z0.5000 F30
G01 X41.1667 Y0.5000 F150
G01 X20.5000
G01 Y49.5000
G01 X51.5000
G01 Y0.5000
G01 X41.1667
G01 X40.9664 Y-9.9206
G01 Z1.0000 F30
G01 X41.1667 Y0.5000 F150
G01 X20.5000
G01 Y49.5000
G01 X51.5000
G01 Y0.5000
G01 X41.1667
G01 X40.9664 Y-9.9206
G01 Z1.5000 F30
G01 X41.1667 Y0.5000 F150
G01 X20.5000
G01 Y49.5000
G01 X51.5000
G01 Y0.5000
G01 X41.1667
G01 X40.9664 Y-9.9206
G00 Z-35.0000

M05
M30
%

